svg/u1f9a7.svg

<svg viewBox="0 0 128 128" xmlns="http://www.w3.org/2000/svg">
  <defs>
    <linearGradient id="SVGID_1_" gradientTransform="matrix(1 0 0 -1 0 0)" gradientUnits="userSpaceOnUse" x1="17.2175" x2="56.2577" y1="-99.9907" y2="-37.5105">
      <stop offset="0" stop-color="#D47755"/>
      <stop offset="0.44" stop-color="#E66D37"/>
      <stop offset="0.89" stop-color="#FB6113"/>
    </linearGradient>
    <radialGradient id="SVGID_2_" cx="12.786216" cy="39.163659" gradientTransform="matrix(0.17 -0.99 2.42 0.41 0 0)" gradientUnits="userSpaceOnUse" r="24.43">
      <stop offset="0.61" stop-color="#FB6113" stop-opacity="0"/>
      <stop offset="1" stop-color="#D47755"/>
    </radialGradient>
    <radialGradient id="SVGID_3_" cx="-10.478106" cy="24.908343" gradientTransform="matrix(0.17 -0.99 2.42 0.41 0 0)" gradientUnits="userSpaceOnUse" r="24.43">
      <stop offset="0.61" stop-color="#FB6113" stop-opacity="0"/>
      <stop offset="1" stop-color="#D47755"/>
    </radialGradient>
    <linearGradient id="SVGID_4_" gradientUnits="userSpaceOnUse" x1="95.8597" x2="110.9297" y1="36.7105" y2="43.9705">
      <stop offset="0.01" stop-color="#FB6113" stop-opacity="0"/>
      <stop offset="0.83" stop-color="#D47755"/>
    </linearGradient>
  </defs>
  <path d="M19.8,92.7 L7,92.8 C7,92.8 3.6,100.2 5.4,102 C7.2,103.8 11.2,103.2 14.9,103.1 C18.6,103 21,103.3 21.8,102.3 C22.6,101.3 21.9,94.4 21.9,94.4 L19.8,92.7 Z" fill="#6B4D42"/>
  <path d="M64.8,11.8 C64.8,11.8 63.5,15 62.3,15.9 C61.1,16.8 56.1,20.5 57.8,23 C59.5,25.5 64.7,25.1 64.7,25.1 L76.1,15.6 L64.8,11.8 Z" fill="#6B4D42"/>
  <path d="M66.6,5.6 C64.8,6.64 63.78,8.64 64,10.7 C64.2,14.3 67.2,16.6 72.4,18.4 C77.6,20.2 82.4,23.4 85.9,24.7 C88.81,25.72 91.83,26.39 94.9,26.7 C97.24,26.88 99.6,26.75 101.9,26.3 C101.9,26.3 98.7,28.9 95.7,31.7 C93.65,33.72 91.84,35.97 90.3,38.4 L89.5,43.1 C89.5,43.1 101.7,42.5 101.8,42 C101.9,41.5 112.8,20.5 112.8,20.5 L66.6,5.6 Z" fill="#8D5F55"/>
  <path d="M47,91.2 C46.9,90.9 44.5,87.1 45.6,82.6 C46.7,78.1 50.1,73.4 50.6,72.4 C51.1,71.4 50.9,58.2 50.9,58.2 L91.6,49.3 C91.6,49.3 93.5,59.6 95.9,65.1 C98.3,70.6 104.3,79.5 105.4,84 C106.03,87.23 106.06,90.55 105.5,93.8 L87.3,102.5 L77,117.2 L65.7,121.7 C65.7,121.7 61.3,118.6 60.1,116.4 C59.3,114.9 59.9,112.3 61,111.9 C62.1,111.5 62.6,112 63.8,113.1 C65.3,114.5 67.6,116.9 67.9,116.6 C68.2,116.3 71.4,111.7 71.4,111.7 C70.68,111.01 69.87,110.4 69,109.9 C68.6,109.9 66.5,111 65.1,110.4 C63.7,109.8 63.6,107.8 63.6,107.8 L52.5,106.7 L47,91.2 Z" fill="#8D5E50"/>
  <path d="M86.8,31.1 C86.8,31.1 83.8,24.2 80.1,21 C77.32,18.68 73.82,17.41 70.2,17.4 C66.3,17.5 62.9,20.4 61.2,22 C59,24.2 55,31.1 55,31.1 L86.8,31.1 Z" fill="#FF5D15"/>
  <path d="M52.4,35.1 C49.66,36.06 47.21,37.72 45.3,39.9 C42.3,43.2 39.7,51.1 39.4,52.5 C38.9,54.8 35,59 27.1,67.7 C20.5,74.9 16.2,79.1 12.9,83.1 C10.5,86 6.3,90.8 7,92.8 C7.7,94.8 11.3,96.2 14.9,96.4 C18.5,96.6 21.1,96.5 22.2,95.6 C23.3,94.7 27.5,90.5 30.4,88.8 C36.5,85.1 49.4,77.1 52.4,68.1 C55.3,59.6 59,51.3 59,51.3 L52.4,35.1 Z" fill="url(#SVGID_1_)"/>
  <path d="M79.1,7.6 C79.1,7.6 72.1,0.5 66.4,5.5 C60.7,10.5 71,16 72.5,16.3 C74,16.6 76.2,17 76.2,17 C76.2,17 83.1,22.3 89.9,24 C95.9,25.5 102.6,24.2 104.8,23.6 C107,23 108.5,22.3 108.7,23.4 C108.9,24.5 107.5,24.9 105.1,25.9 C102.7,26.9 92.6,38.4 92.6,38.4 L91.1,48 C91.1,48 92.4,54.1 93.5,58.5 C94.21,61.38 95.25,64.16 96.6,66.8 C96.6,66.8 98.7,67.3 101.9,64.9 C107.2,61 106.2,50.1 106.2,50.1 C106.2,50.1 109.2,51.1 111.3,49.1 C113.4,47.1 118.9,30.1 119.6,27.4 C120.3,24.7 122,20.2 120.4,18.8 C117.21,15.91 113.52,13.64 109.5,12.1 C105.8,10.8 96.8,9 91,8.2 C86.5,7.8 79.1,7.6 79.1,7.6 Z" fill="#FB6113"/>
  <path d="M120.4,18.9 C117.21,16.01 113.52,13.74 109.5,12.2 C105.8,10.9 96.8,9.1 91,8.3 C86.5,7.8 79,7.6 79,7.6 C79,7.6 72,0.5 66.3,5.5 C60.6,10.5 71,16 72.5,16.3 C74,16.6 76.2,17 76.2,17 C76.2,17 83.1,22.3 89.9,24 C95.9,25.5 102.6,24.2 104.8,23.6 C107,23 108.5,22.3 108.7,23.4 L120.4,18.9 Z" fill="url(#SVGID_2_)"/>
  <path d="M120.4,18.9 C117.21,16.01 113.52,13.74 109.5,12.2 C105.8,10.9 96.8,9.1 91,8.3 C86.5,7.8 79,7.6 79,7.6 C79,7.6 72,0.5 66.3,5.5 C60.6,10.5 71,16 72.5,16.3 C74,16.6 76.2,17 76.2,17 C76.2,17 83.1,22.3 89.9,24 C95.9,25.5 102.6,24.2 104.8,23.6 C107,23 108.5,22.3 108.7,23.4 L120.4,18.9 Z" fill="url(#SVGID_3_)"/>
  <path d="M108.8,23.4 C108.9,24.5 107.6,24.9 105.2,25.9 C102.8,26.9 92.7,38.4 92.7,38.4 L91.1,48 C91.1,48 92.4,54.1 93.5,58.5 C94.21,61.38 95.25,64.16 96.6,66.8 C96.6,66.8 98.7,67.3 101.9,64.9 C107.2,61 106.2,50.1 106.2,50.1 C106.2,50.1 109.2,51.1 111.3,49.1 C113.4,47.1 118.9,30.1 119.6,27.4 C120.3,24.7 122,20.2 120.4,18.8 L108.8,23.4 Z" fill="url(#SVGID_4_)"/>
  <path d="M53.7,50.8 C53.7,50.8 48,46.8 48.8,40.1 C49.6,33.4 54.4,30.2 56.9,28.6 C59.4,27 64.2,25.5 66.5,24.5 C68.8,23.5 69.6,21.7 70.7,21.7 C71.8,21.7 73.8,24.2 77,25.5 C80.2,26.8 87,28.7 90.8,32.8 C94.6,36.9 95.5,41 94.1,45.2 C92.7,49.4 91,50.7 91,50.7 C91,50.7 91.9,60.7 89.7,67.2 C87.2,74.3 78.1,81.6 67.2,78 C63.42,76.91 60.11,74.59 57.8,71.4 C53.7,66 54,59.4 53.8,56.3 C53.62,54.47 53.59,52.63 53.7,50.8 Z" fill="#50362D"/>
  <path d="M70.8,23.8 C67.96,25.65 64.98,27.29 61.9,28.7 C58.5,30.1 49.8,34 50.9,42.5 C51.9,49.8 63.1,56.2 65.9,56.9 C68.7,57.6 79.2,55.9 80.7,54.9 C82.2,53.9 91.7,49.7 92.4,42.5 C93.1,35.3 84.7,30.1 78.9,28.2 C72.3,25.8 71.5,23.7 70.8,23.8 Z" fill="#8D5F55"/>
  <path d="M61.6,35.3 C62.3,35.9 63.1,35.2 63.7,34.5 C64.3,33.8 65.7,31.9 66.9,31.7 C68.3,31.6 69.3,33.2 71,33.2 C72.7,33.2 72.9,31.7 74.7,31.7 C76.5,31.7 77.8,34.2 78.1,34.7 C78.4,35.2 79,36.1 79.8,35.5 C80.6,34.9 79.9,34.1 79.7,33.8 C79.5,33.5 77.3,29.8 74.8,29.7 C72.3,29.6 72.4,31.1 71,31.1 C69.6,31.1 69.8,29.5 67.2,29.6 C64.6,29.7 63.2,31.9 62.7,32.6 C62.2,33.3 60.8,34.6 61.6,35.3 Z" fill="#BA957E"/>
  <path d="M75.251,32.711 C76.189,32.75 76.903,33.9 76.845,35.28 C76.787,36.659 75.98,37.746 75.042,37.706 C74.104,37.667 73.39,36.517 73.448,35.137 C73.506,33.758 74.313,32.671 75.251,32.711 Z" fill="#010103"/>
  <path d="M69.293,35.041 C69.415,36.416 68.711,37.602 67.72,37.69 C66.73,37.778 65.829,36.734 65.707,35.359 C65.585,33.983 66.289,32.797 67.279,32.71 C68.27,32.622 69.171,33.666 69.293,35.041 Z" fill="#010103"/>
  <path d="M70.9,41 C69.3,41 64.3,40.8 62.4,44.8 C60.5,48.8 61.1,56.6 61.5,57.7 C62.2,59.5 66.2,62.5 72.3,62.2 C78.4,61.9 80.7,59.3 81.2,57.7 C81.7,56.3 80.7,45.2 78.7,43.2 C75.7,40.1 70.9,41 70.9,41 Z" fill="#FE5E12"/>
  <path d="M70.6,39.2 C66.7,39.2 63.9,42.4 63.8,46.5 C63.7,51.8 64.2,53.3 66.6,54.5 C68.6,55.6 74.2,55.4 76.3,54 C78.4,52.6 78.6,48.3 78.3,45.7 C78,43.1 77.1,39.2 70.6,39.2 Z" fill="#BA957E"/>
  <path d="M71,46.6 C73.3,46.6 73.8,48 75.6,48.1 C77.4,48.2 78.1,47 78.2,48.2 C78.3,49.4 76.8,49.9 75.5,50 C74.2,50.1 72.5,48.7 70.9,48.6 C69.3,48.5 68.5,50.2 66.5,50.1 C64.5,50 63.3,48.8 63.9,48 C64.5,47.2 64.9,48.5 66.5,48.4 C68.1,48.3 68.5,46.6 71,46.6 Z" fill="#543527"/>
  <path d="M67.9,42.7 C68.32,43.31 69.1,43.56 69.8,43.3 C70.3,43.1 70.3,42.2 69.6,41.4 C68.9,40.6 68.4,40.4 67.9,40.8 C67.4,41.2 67,41.8 67.9,42.7 Z" fill="#543527"/>
  <path d="M71.6,41.1 C71.09,41.65 71.01,42.46 71.4,43.1 C71.7,43.5 72.6,43.4 73.2,42.5 C73.7,41.8 73.9,41.1 73.4,40.7 C72.9,40.3 72.4,40 71.6,41.1 Z" fill="#543527"/>
  <path d="M56.7,93.1 C56,90.4 49.8,85.1 45.4,84.4 C40.3,83.6 36,87.9 35.1,89.6 C34.21,91.03 33.63,92.63 33.4,94.3 C33.2,96.3 41.9,98.4 41.9,98.4 L56.7,93.1 Z" fill="#FE5E12"/>
  <path d="M70.5,103.7 C72.48,101.7 74.58,99.83 76.8,98.1 C79,96.4 82.7,93.6 85.4,92.7 C87.78,92.1 90.25,91.89 92.7,92.1 C97.2,92.6 102,93.6 103,92.8 C104.8,91.4 102.1,97.2 102.1,97.2 L83.2,99.4 L74.2,104.8 L70.5,103.7 Z" fill="#FE5E12"/>
  <path d="M109.8,90.9 C109.8,90.8 107.8,87.8 102.8,87.7 C99.5,87.6 95.2,89 95.7,90.3 C97.6,90.8 100.4,91.4 100.4,91.4 L109.8,90.9 Z" fill="#FE5E12"/>
  <path d="M76.5,108.3 C76.5,108.3 74.6,112.1 80.9,111.4 C87.2,110.7 89.5,110.4 94.1,109.8 C98.99,108.93 103.71,107.31 108.1,105 C110.5,103.5 113.3,101.1 112.9,96.6 C112.78,92.75 109.83,89.58 106,89.2 C100.9,88.5 97.1,90.6 97.9,90.9 C99.3,91.5 102.3,91.7 101.7,93.3 C101.1,94.9 98.3,94.3 95.4,94.1 C92.5,93.9 87.1,93.9 84.5,95.2 C81.9,96.5 73.5,103.9 73.5,103.9 L76.5,108.3 Z" fill="#D27856"/>
  <path d="M33.1,96 C32.8,99.9 33.5,102.2 36.5,104.5 C39.5,106.8 43.2,106.8 46.1,106.9 C49,107 53.5,107 53.5,107 C53.5,107 55.9,93.7 55.8,93.5 C55.7,93.3 48.2,87.2 44.4,86.9 C40.6,86.6 33.7,88 33.1,96 Z" fill="#D27856"/>
  <path d="M50,101.3 C49.9,105.5 52.3,109.3 56.2,109.8 C60.1,110.3 62.6,109.8 63.3,109.3 C63.92,108.79 64.49,108.22 65,107.6 C64.01,106.89 62.98,106.26 61.9,105.7 C60.3,104.9 58.3,104.9 58.8,104 C59.3,103.1 61.6,104.3 62.3,104.7 C63,105.1 65.5,107.1 65.5,107.1 L66.2,107.5 L68.6,104.6 C68.6,104.6 65.6,102.7 64.4,102 C63.2,101.3 60.4,100.2 60.9,99.5 C61.4,98.8 63.8,100.2 65.1,100.9 C66.4,101.6 69.9,104.3 69.9,104.3 L71.7,102.5 C71.7,102.5 69.7,100.3 67.9,98.7 C66.1,97.1 62.7,96.9 63,96 C63.5,94.5 67.8,96.6 68.9,97.5 C70,98.4 72.9,101.4 72.9,101.4 C72.9,101.4 75.1,99.7 75.1,99.6 C75.1,99.5 72,94 69.1,92.8 C65.3,91.51 61.22,91.27 57.3,92.1 C54.5,92.8 50.1,97.2 50,101.3 Z" fill="#6B4C42"/>
  <path d="M79.7,119.4 C77.9,121.3 69.3,124 67.4,123.4 C65.5,122.8 61.2,118.5 61.3,117.9 C61.4,117.3 64.8,120.4 67.3,120 C69.24,119.65 71.06,118.83 72.6,117.6 C72.9,117.2 73.8,115.8 71.7,116.8 C69.6,117.8 66.9,119.2 65.9,118.6 C64.9,118 61.8,116.2 61.4,115.3 C61,114.4 60.8,111.6 62.1,111.8 C63.4,112 65.4,114 65.4,114 C65.4,114 69.7,112.3 69.8,111.2 C69.9,110.1 69.5,109 68.5,109 C67.5,109 66.5,109.5 65.9,109 C65.47,108.63 65.07,108.23 64.7,107.8 L69.1,104.1 C70.6,102.91 72.64,102.64 74.4,103.4 C77.1,104.5 80.2,107.5 80.8,110.2 C81.6,112.7 81.4,117.6 79.7,119.4 Z" fill="#6B4C42"/>
</svg>

<svg viewBox="0 0 128 128" xmlns="http://www.w3.org/2000/svg">
  <path d="M19.8,92.7L7,92.8c0,0-3.4,7.4-1.6,9.2s5.8,1.2,9.5,1.1s6.1,0.2,6.9-0.8s0.1-7.9,0.1-7.9L19.8,92.7z" fill="#6B4D42"/>
  <path d="M64.8,11.8c0,0-1.3,3.2-2.5,4.1s-6.2,4.6-4.5,7.1s6.9,2.1,6.9,2.1l11.4-9.5L64.8,11.8z" fill="#6B4D42"/>
  <path d="M66.6,5.6c-1.8,1.04-2.82,3.04-2.6,5.1c0.2,3.6,3.2,5.9,8.4,7.7s10,5,13.5,6.3 c2.91,1.02,5.93,1.69,9,2c2.34,0.18,4.7,0.05,7-0.4c0,0-3.2,2.6-6.2,5.4c-2.05,2.02-3.86,4.27-5.4,6.7l-0.8,4.7 c0,0,12.2-0.6,12.3-1.1s11-21.5,11-21.5L66.6,5.6z" fill="#8D5F55"/>
  <path d="M47,91.2c-0.1-0.3-2.5-4.1-1.4-8.6s4.5-9.2,5-10.2s0.3-14.2,0.3-14.2l40.7-8.9c0,0,1.9,10.3,4.3,15.8 s8.4,14.4,9.5,18.9c0.63,3.23,0.66,6.55,0.1,9.8l-18.2,8.7L77,117.2l-11.3,4.5c0,0-4.4-3.1-5.6-5.3c-0.8-1.5-0.2-4.1,0.9-4.5 s1.6,0.1,2.8,1.2c1.5,1.4,3.8,3.8,4.1,3.5s3.5-4.9,3.5-4.9c-0.72-0.69-1.53-1.3-2.4-1.8c-0.4,0-2.5,1.1-3.9,0.5s-1.5-2.6-1.5-2.6 l-11.1-1.1L47,91.2z" fill="#8D5E50"/>
  <path d="M86.8,31.1c0,0-3-6.9-6.7-10.1c-2.78-2.32-6.28-3.59-9.9-3.6c-3.9,0.1-7.3,3-9,4.6 C59,24.2,55,31.1,55,31.1H86.8z" fill="#FF5D15"/>
  <linearGradient id="SVGID_1_" gradientTransform="matrix(1 0 0 -1 0 -2176)" gradientUnits="userSpaceOnUse" x1="17.2175" x2="56.2577" y1="-2275.9907" y2="-2213.5105">
    <stop offset="0" stop-color="#D47755"/>
    <stop offset="0.44" stop-color="#E66D37"/>
    <stop offset="0.89" stop-color="#FB6113"/>
  </linearGradient>
  <path d="M52.4,35.1c-2.74,0.96-5.19,2.62-7.1,4.8c-3,3.3-5.6,11.2-5.9,12.6C38.9,54.8,35,59,27.1,67.7 c-6.6,7.2-10.9,11.4-14.2,15.4C10.5,86,6.3,90.8,7,92.8s4.3,3.4,7.9,3.6s6.2,0.1,7.3-0.8s5.3-5.1,8.2-6.8c6.1-3.7,19-11.7,22-20.7 c2.9-8.5,6.6-16.8,6.6-16.8L52.4,35.1z" fill="url(#SVGID_1_)"/>
  <path d="M79.1,7.6c0,0-7-7.1-12.7-2.1S71,16,72.5,16.3s3.7,0.7,3.7,0.7s6.9,5.3,13.7,7 c6,1.5,12.7,0.2,14.9-0.4s3.7-1.3,3.9-0.2s-1.2,1.5-3.6,2.5S92.6,38.4,92.6,38.4L91.1,48c0,0,1.3,6.1,2.4,10.5 c0.71,2.88,1.75,5.66,3.1,8.3c0,0,2.1,0.5,5.3-1.9c5.3-3.9,4.3-14.8,4.3-14.8s3,1,5.1-1s7.6-19,8.3-21.7s2.4-7.2,0.8-8.6 c-3.19-2.89-6.88-5.16-10.9-6.7C105.8,10.8,96.8,9,91,8.2C86.5,7.8,79.1,7.6,79.1,7.6z" fill="#FB6113"/>
  <radialGradient id="SVGID_2_" cx="-1961.5488" cy="-483.7426" gradientTransform="matrix(0.17 -0.99 2.42 0.41 1601.0701 -1740.2001)" gradientUnits="userSpaceOnUse" r="24.43">
    <stop offset="0.61" stop-color="#FB6113" stop-opacity="0"/>
    <stop offset="1" stop-color="#D47755"/>
  </radialGradient>
  <path d="M120.4,18.9c-3.19-2.89-6.88-5.16-10.9-6.7c-3.7-1.3-12.7-3.1-18.5-3.9 c-4.5-0.5-12-0.7-12-0.7s-7-7.1-12.7-2.1S71,16,72.5,16.3s3.7,0.7,3.7,0.7s6.9,5.3,13.7,7c6,1.5,12.7,0.2,14.9-0.4s3.7-1.3,3.9-0.2 L120.4,18.9z" fill="url(#SVGID_2_)"/>
  <radialGradient id="SVGID_3_" cx="-1999.8588" cy="-466.7426" gradientTransform="matrix(0.17 -0.99 2.42 0.41 1527.99 -1767.91)" gradientUnits="userSpaceOnUse" r="24.43">
    <stop offset="0.61" stop-color="#FB6113" stop-opacity="0"/>
    <stop offset="1" stop-color="#D47755"/>
  </radialGradient>
  <path d="M120.4,18.9c-3.19-2.89-6.88-5.16-10.9-6.7c-3.7-1.3-12.7-3.1-18.5-3.9 c-4.5-0.5-12-0.7-12-0.7s-7-7.1-12.7-2.1S71,16,72.5,16.3s3.7,0.7,3.7,0.7s6.9,5.3,13.7,7c6,1.5,12.7,0.2,14.9-0.4s3.7-1.3,3.9-0.2 L120.4,18.9z" fill="url(#SVGID_3_)"/>
  <linearGradient id="SVGID_4_" gradientTransform="matrix(1 0 0 1 0 -482)" gradientUnits="userSpaceOnUse" x1="95.8597" x2="110.9297" y1="518.7105" y2="525.9705">
    <stop offset="0.01" stop-color="#FB6113" stop-opacity="0"/>
    <stop offset="0.83" stop-color="#D47755"/>
  </linearGradient>
  <path d="M108.8,23.4c0.1,1.1-1.2,1.5-3.6,2.5S92.7,38.4,92.7,38.4L91.1,48c0,0,1.3,6.1,2.4,10.5 c0.71,2.88,1.75,5.66,3.1,8.3c0,0,2.1,0.5,5.3-1.9c5.3-3.9,4.3-14.8,4.3-14.8s3,1,5.1-1s7.6-19,8.3-21.7s2.4-7.2,0.8-8.6L108.8,23.4 z" fill="url(#SVGID_4_)"/>
  <path d="M53.7,50.8c0,0-5.7-4-4.9-10.7s5.6-9.9,8.1-11.5s7.3-3.1,9.6-4.1s3.1-2.8,4.2-2.8s3.1,2.5,6.3,3.8 s10,3.2,13.8,7.3s4.7,8.2,3.3,12.4S91,50.7,91,50.7s0.9,10-1.3,16.5C87.2,74.3,78.1,81.6,67.2,78c-3.78-1.09-7.09-3.41-9.4-6.6 c-4.1-5.4-3.8-12-4-15.1C53.62,54.47,53.59,52.63,53.7,50.8z" fill="#50362D"/>
  <path d="M70.8,23.8c-2.84,1.85-5.82,3.49-8.9,4.9c-3.4,1.4-12.1,5.3-11,13.8c1,7.3,12.2,13.7,15,14.4 c2.8,0.7,13.3-1,14.8-2s11-5.2,11.7-12.4s-7.7-12.4-13.5-14.3C72.3,25.8,71.5,23.7,70.8,23.8z" fill="#8D5F55"/>
  <path d="M61.6,35.3c0.7,0.6,1.5-0.1,2.1-0.8s2-2.6,3.2-2.8c1.4-0.1,2.4,1.5,4.1,1.5s1.9-1.5,3.7-1.5 s3.1,2.5,3.4,3s0.9,1.4,1.7,0.8s0.1-1.4-0.1-1.7s-2.4-4-4.9-4.1s-2.4,1.4-3.8,1.4s-1.2-1.6-3.8-1.5s-4,2.3-4.5,3 S60.8,34.6,61.6,35.3z" fill="#BA957E"/>
  <ellipse cx="75.15" cy="35.21" fill="#010103" rx="2.5" ry="1.7" transform="matrix(0.0419 -0.9991 0.9991 0.0419 36.8194 108.8156)"/>
  <ellipse cx="67.5" cy="35.2" fill="#010103" rx="1.8" ry="2.5" transform="matrix(0.9961 -0.0882 0.0882 0.9961 -2.8415 6.0907)"/>
  <path d="M70.9,41c-1.6,0-6.6-0.2-8.5,3.8s-1.3,11.8-0.9,12.9c0.7,1.8,4.7,4.8,10.8,4.5s8.4-2.9,8.9-4.5 c0.5-1.4-0.5-12.5-2.5-14.5C75.7,40.1,70.9,41,70.9,41z" fill="#FE5E12"/>
  <path d="M70.6,39.2c-3.9,0-6.7,3.2-6.8,7.3c-0.1,5.3,0.4,6.8,2.8,8c2,1.1,7.6,0.9,9.7-0.5s2.3-5.7,2-8.3 S77.1,39.2,70.6,39.2z" fill="#BA957E"/>
  <path d="M71,46.6c2.3,0,2.8,1.4,4.6,1.5s2.5-1.1,2.6,0.1s-1.4,1.7-2.7,1.8s-3-1.3-4.6-1.4s-2.4,1.6-4.4,1.5 s-3.2-1.3-2.6-2.1c0.6-0.8,1,0.5,2.6,0.4S68.5,46.6,71,46.6z" fill="#543527"/>
  <path d="M67.9,42.7c0.42,0.61,1.2,0.86,1.9,0.6c0.5-0.2,0.5-1.1-0.2-1.9s-1.2-1-1.7-0.6S67,41.8,67.9,42.7z" fill="#543527"/>
  <path d="M71.6,41.1c-0.51,0.55-0.59,1.36-0.2,2c0.3,0.4,1.2,0.3,1.8-0.6c0.5-0.7,0.7-1.4,0.2-1.8 S72.4,40,71.6,41.1z" fill="#543527"/>
  <path d="M56.7,93.1c-0.7-2.7-6.9-8-11.3-8.7c-5.1-0.8-9.4,3.5-10.3,5.2c-0.89,1.43-1.47,3.03-1.7,4.7 c-0.2,2,8.5,4.1,8.5,4.1L56.7,93.1z" fill="#FE5E12"/>
  <path d="M70.5,103.7c1.98-2,4.08-3.87,6.3-5.6c2.2-1.7,5.9-4.5,8.6-5.4c2.38-0.6,4.85-0.81,7.3-0.6 c4.5,0.5,9.3,1.5,10.3,0.7c1.8-1.4-0.9,4.4-0.9,4.4l-18.9,2.2l-9,5.4L70.5,103.7z" fill="#FE5E12"/>
  <path d="M109.8,90.9c0-0.1-2-3.1-7-3.2c-3.3-0.1-7.6,1.3-7.1,2.6c1.9,0.5,4.7,1.1,4.7,1.1L109.8,90.9z" fill="#FE5E12"/>
  <path d="M76.5,108.3c0,0-1.9,3.8,4.4,3.1s8.6-1,13.2-1.6c4.89-0.87,9.61-2.49,14-4.8c2.4-1.5,5.2-3.9,4.8-8.4 c-0.12-3.85-3.07-7.02-6.9-7.4c-5.1-0.7-8.9,1.4-8.1,1.7c1.4,0.6,4.4,0.8,3.8,2.4s-3.4,1-6.3,0.8s-8.3-0.2-10.9,1.1s-11,8.7-11,8.7 L76.5,108.3z" fill="#D27856"/>
  <path d="M33.1,96c-0.3,3.9,0.4,6.2,3.4,8.5s6.7,2.3,9.6,2.4s7.4,0.1,7.4,0.1s2.4-13.3,2.3-13.5 s-7.6-6.3-11.4-6.6S33.7,88,33.1,96z" fill="#D27856"/>
  <path d="M50,101.3c-0.1,4.2,2.3,8,6.2,8.5s6.4,0,7.1-0.5c0.62-0.51,1.19-1.08,1.7-1.7 c-0.99-0.71-2.02-1.34-3.1-1.9c-1.6-0.8-3.6-0.8-3.1-1.7s2.8,0.3,3.5,0.7s3.2,2.4,3.2,2.4l0.7,0.4l2.4-2.9c0,0-3-1.9-4.2-2.6 s-4-1.8-3.5-2.5s2.9,0.7,4.2,1.4s4.8,3.4,4.8,3.4l1.8-1.8c0,0-2-2.2-3.8-3.8S62.7,96.9,63,96c0.5-1.5,4.8,0.6,5.9,1.5s4,3.9,4,3.9 s2.2-1.7,2.2-1.8s-3.1-5.6-6-6.8c-3.8-1.29-7.88-1.53-11.8-0.7C54.5,92.8,50.1,97.2,50,101.3z" fill="#6B4C42"/>
  <path d="M79.7,119.4c-1.8,1.9-10.4,4.6-12.3,4s-6.2-4.9-6.1-5.5s3.5,2.5,6,2.1c1.94-0.35,3.76-1.17,5.3-2.4 c0.3-0.4,1.2-1.8-0.9-0.8s-4.8,2.4-5.8,1.8s-4.1-2.4-4.5-3.3s-0.6-3.7,0.7-3.5s3.3,2.2,3.3,2.2s4.3-1.7,4.4-2.8s-0.3-2.2-1.3-2.2 s-2,0.5-2.6,0c-0.43-0.37-0.83-0.77-1.2-1.2l4.4-3.7c1.5-1.19,3.54-1.46,5.3-0.7c2.7,1.1,5.8,4.1,6.4,6.8 C81.6,112.7,81.4,117.6,79.7,119.4z" fill="#6B4C42"/>
</svg>
